X:1
T: Blockhouse Dutchman
M: 4/4
L: 1/8
R: hornpipe
K: Dmaj
|: DFAF AcBA | GEBE dBGB | ABcA Acec |1 d2dB f2B2 :|2 d2 (3edc d2 (3def ||
|: g2 (3fgf e2d2 | c2 (3BcB A2B2 | ABcA Acec |1 d2 (3edc d2(3def :|2 d2 (3edc d4||
